22x22/places/folder-red-pcloud.svg

<svg xmlns="http://www.w3.org/2000/svg" width="22" height="22" version="1">
 <rect style="opacity:0.2" width="20" height="12" x="1" y="8.5" rx="1" ry="1"/>
 <path style="fill:#bf4b4b" d="M 1,16 C 1,16.554 1.446,17 2,17 H 20 C 20.554,17 21,16.554 21,16 V 5 C 21,4.446 20.554,4 20,4 H 11 C 9.5,4 9,2 7.5,2 H 2 C 1.446,2 1,2.446 1,3"/>
 <rect style="opacity:0.2" width="20" height="12" x="1" y="7.5" rx="1" ry="1"/>
 <rect style="fill:#f4f4f7" width="16" height="8" x="3" y="6" rx="1" ry="1"/>
 <rect style="fill:#e25252" width="20" height="12" x="1" y="8" rx="1" ry="1"/>
 <path style="opacity:0.1;fill:#f4f4f7" d="M 2,2 C 1.446,2 1,2.446 1,3 V 3.5 C 1,2.946 1.446,2.5 2,2.5 H 7.5 C 9,2.5 9.5,4.5 11,4.5 H 20 C 20.554,4.5 21,4.946 21,5.5 V 5 C 21,4.446 20.554,4 20,4 H 11 C 9.5,4 9,2 7.5,2 Z"/>
 <path style="fill:#4f1d1d" d="M 10.818359,10 A 3.6363636,3.6363636 0 0 0 7.4707031,12.216797 2.9090909,2.9090909 0 0 0 5,15.091797 2.9090909,2.9090909 0 0 0 7.7695312,17.992188 V 18 H 14.835938 A 1.8008658,1.8008658 0 0 0 15.041016,17.986328 1.75,1.75 0 0 0 15.25,18 1.75,1.75 0 0 0 17,16.25 1.75,1.75 0 0 0 15.804688,14.591797 1.8181818,1.8181818 0 0 0 15.908203,14 1.8181818,1.8181818 0 0 0 14.148438,12.185547 3.6363636,3.6363636 0 0 0 10.818359,10 Z M 9,12 h 1 1.910156 v 3 H 10 v 1.5 H 9 V 15 Z m 1,1 v 1 h 1 v -1 z"/>
</svg>

<svg xmlns="http://www.w3.org/2000/svg" width="22" height="22" version="1"><rect style="opacity:.2" width="20" height="12" x="1" y="8.5" rx="1" ry="1"/><path style="fill:#bf4b4b" d="M1 16c0 .554.446 1 1 1h18c.554 0 1-.446 1-1V5c0-.554-.446-1-1-1h-9C9.5 4 9 2 7.5 2H2c-.554 0-1 .446-1 1"/><rect style="opacity:.2" width="20" height="12" x="1" y="7.5" rx="1" ry="1"/><rect style="fill:#f4f4f7" width="16" height="8" x="3" y="6" rx="1" ry="1"/><rect style="fill:#e25252" width="20" height="12" x="1" y="8" rx="1" ry="1"/><path style="opacity:.1;fill:#f4f4f7" d="M2 2c-.554 0-1 .446-1 1v.5c0-.554.446-1 1-1h5.5c1.5 0 2 2 3.5 2h9c.554 0 1 .446 1 1V5c0-.554-.446-1-1-1h-9C9.5 4 9 2 7.5 2z"/><path style="fill:#4f1d1d" d="M10.818 10a3.636 3.636 0 0 0-3.347 2.217A2.91 2.91 0 0 0 5 15.092a2.91 2.91 0 0 0 2.77 2.9V18h7.066a1.8 1.8 0 0 0 .205-.014 1.75 1.75 0 0 0 .209.014A1.75 1.75 0 0 0 17 16.25a1.75 1.75 0 0 0-1.195-1.658 1.818 1.818 0 0 0 .103-.592 1.818 1.818 0 0 0-1.76-1.814A3.636 3.636 0 0 0 10.818 10zM9 12h2.91v3H10v1.5H9V15zm1 1v1h1v-1z"/></svg>
